X:6
T:Orphan, The / Greasy Coat
T:The Orphan
M: 6/8
R: jig
K: C
Q: 3/8=110
L: 1/8
"Dm"D2 D DCD|FDF "C"G3|"Dm"A2 A "C"G2 G|"Dm"F2 F DCA,|
"G"G,2 D "Dm"DCD|FDF "C"G3|"Dm"AcA "C"GcG|"C"FDC "Dm"DFA:|
|:"Dm"d d cAG|FGA "C"c3|"Bb"dfd "F"cAG|"F"AGF "Am"DCA,|
"G"G,2 D "Dm"DCD|FDF "C"G3|"Dm"AcA "C"GcG|"C"FDC "Dm"DFA:|
T:
